!!!OTL:
!!!ONR: No. 14
!! From Madeleine Beland,
!! "Chansons de Voyageurs, Coureurs de Bois et Forestiers"
!! Quebec: Les Presses de l'universite/ Laval, 1982
!! ISBN 2-7637-6942-X
**kern
*clefG2
*k[f#]
*M2/4
8r
8d
(8e
8f#)
=
8g
16g
16g
8a
8b
=
(4cc
8b)
8r
=
8r
8a
8g
8f#
=
4d
8e
8f#
=
4g
12r
12d
12d
=
4.g
8g
=
4g
8a
8b
=
(4cc
8b)
8r
=
8r
8a
8g
8f#
=
4d
8e
8f#
=
4g
16r
16g
(16g
16b)
=
24dd
24r
12dd
12dd
(12dd
12cc)
12a
=
[4cc
8.cc]
16a
=
8cc
8cc
12cc
12b
12g
=
4a
8.dd
16b
=
4g
16r
16d
16g
16a
=
8b
8g
16r
(16d
16g)
16b
=
([4dd
16dd]
16cc)
16a
16b
=
[4g
8g]
8r
==
*-
